assets/svg/fa-list-alt.svg

<svg xmlns="http://www.w3.org/2000/svg" width="100%" height="100%" viewBox="0 0 512 512"><path fill="currentColor" d="M464 32c26.5 0 48 21.5 48 48v352c0 26.5-21.5 48-48 48h-416c-26.5 0-48-21.5-48-48v-352c0-26.5 21.5-48 48-48h416zM458 432c3.3 0 6-2.7 6-6v-340c0-3.3-2.7-6-6-6h-404c-3.3 0-6 2.7-6 6v340c0 3.3 2.7 6 6 6h404zM416 340v24c0 6.6-5.4 12-12 12h-200c-6.6 0-12-5.4-12-12v-24c0-6.6 5.4-12 12-12h200c6.6 0 12 5.4 12 12zM416 244v24c0 6.6-5.4 12-12 12h-200c-6.6 0-12-5.4-12-12v-24c0-6.6 5.4-12 12-12h200c6.6 0 12 5.4 12 12zM416 148v24c0 6.6-5.4 12-12 12h-200c-6.6 0-12-5.4-12-12v-24c0-6.6 5.4-12 12-12h200c6.6 0 12 5.4 12 12zM164 160c0 19.9-16.1 36-36 36s-36-16.1-36-36 16.1-36 36-36 36 16.1 36 36zM164 256c0 19.9-16.1 36-36 36s-36-16.1-36-36 16.1-36 36-36 36 16.1 36 36zM164 352c0 19.9-16.1 36-36 36s-36-16.1-36-36 16.1-36 36-36 36 16.1 36 36z" /></svg>

<svg xmlns="http://www.w3.org/2000/svg" width="100%" height="100%" viewBox="0 0 512 512"><path fill="currentColor" d="M464 32H48C21.5 32 0 53.5 0 80V432C0 458.5 21.5 480 48 480H464C490.5 480 512 458.5 512 432V80C512 53.5 490.5 32 464 32zM458 432H54A6-6 0 0 0 48 426V86A6-6 0 0 0 54 80H458A6-6 0 0 0 464 86V426A6-6 0 0 0 458 432zM416 340V364C416 370.6 410.6 376 404 376H204C197.4 376 192 370.6 192 364V340C192 333.4 197.4 328 204 328H404C410.6 328 416 333.4 416 340zM416 244V268C416 274.6 410.6 280 404 280H204C197.4 280 192 274.6 192 268V244C192 237.4 197.4 232 204 232H404C410.6 232 416 237.4 416 244zM416 148V172C416 178.6 410.6 184 404 184H204C197.4 184 192 178.6 192 172V148C192 141.4 197.4 136 204 136H404C410.6 136 416 141.4 416 148zM164 160C164 179.9 147.9 196 128 196S92 179.9 92 160 108.1 124 128 124 164 140.1 164 160zM164 256C164 275.9 147.9 292 128 292S92 275.9 92 256 108.1 220 128 220 164 236.1 164 256zM164 352C164 371.9 147.9 388 128 388S92 371.9 92 352 108.1 316 128 316 164 332.1 164 352z" /></svg>
